icons/svg/24x24/briefcase/outline.svg

<svg xmlns="http://www.w3.org/2000/svg" width="24" height="24" viewBox="0 0 24 24">
  <path fill-rule="evenodd" d="M19.1523,18.4434 C17.3653,18.6974 14.6733,19.0004 12.0003,19.0004 C9.3273,19.0004 6.6343,18.6974 4.8473,18.4434 C4.3643,18.3744 4.0003,17.9494 4.0003,17.4544 L4.0003,13.0004 L10.0003,13.0004 L10.0003,14.0004 C10.0003,14.5524 10.4473,15.0004 11.0003,15.0004 L13.0003,15.0004 C13.5523,15.0004 14.0003,14.5524 14.0003,14.0004 L14.0003,13.0004 L20.0003,13.0004 L20.0003,17.4544 C20.0003,17.9494 19.6353,18.3744 19.1523,18.4434 L19.1523,18.4434 Z M4.8413,8.5074 C6.4113,8.2764 8.9263,8.0004 12.0003,8.0004 C15.0733,8.0004 17.5893,8.2764 19.1583,8.5074 C19.6453,8.5804 20.0003,8.9954 20.0003,9.4964 L20.0003,11.0004 L4.0003,11.0004 L4.0003,9.4964 C4.0003,8.9954 4.3543,8.5804 4.8413,8.5074 L4.8413,8.5074 Z M9.0003,5.0004 L15.0003,5.0004 L15.0003,6.0864 C14.0693,6.0334 13.0693,6.0004 12.0003,6.0004 C10.9303,6.0004 9.9303,6.0334 9.0003,6.0864 L9.0003,5.0004 Z M19.4503,6.5294 C18.7563,6.4264 17.9313,6.3234 17.0003,6.2354 L17.0003,5.0004 C17.0003,3.8974 16.1023,3.0004 15.0003,3.0004 L9.0003,3.0004 C7.8973,3.0004 7.0003,3.8974 7.0003,5.0004 L7.0003,6.2354 C6.0683,6.3234 5.2433,6.4264 4.5493,6.5294 C3.0803,6.7464 2.0003,8.0104 2.0003,9.4964 L2.0003,17.4544 C2.0003,18.9444 3.0913,20.2134 4.5663,20.4224 C6.4853,20.6954 9.2423,21.0004 12.0003,21.0004 C14.7573,21.0004 17.5143,20.6954 19.4333,20.4224 C20.9083,20.2134 22.0003,18.9444 22.0003,17.4544 L22.0003,9.4964 C22.0003,8.0104 20.9203,6.7464 19.4503,6.5294 L19.4503,6.5294 Z"/>
</svg>

<svg width="24" height="24" fill="none" xmlns="http://www.w3.org/2000/svg">
  <path fill-rule="evenodd" clip-rule="evenodd" d="M19.152 18.443C17.365 18.697 14.673 19 12 19s-5.366-.303-7.153-.557A.998.998 0 014 17.454V13h6v1a1 1 0 001 1h2a1 1 0 001-1v-1h6v4.454a1 1 0 01-.848.99zM4.842 8.507A49.838 49.838 0 0112 8c3.073 0 5.59.276 7.158.507a.989.989 0 01.842.99V11H4V9.496c0-.5.354-.916.841-.989zM9 5h6v1.086a52.687 52.687 0 00-6 0V5zm10.45 1.53A46.83 46.83 0 0017 6.234V5c0-1.103-.898-2-2-2H9c-1.103 0-2 .897-2 2v1.235c-.932.088-1.757.191-2.45.294A2.991 2.991 0 002 9.496v7.958a2.993 2.993 0 002.566 2.968C6.486 20.695 9.242 21 12 21c2.757 0 5.514-.305 7.433-.578A2.994 2.994 0 0022 17.454V9.496c0-1.486-1.08-2.75-2.55-2.967z" fill="#000"/>
</svg>
